**harmony	**harte	**kern	**silbe	**kern.1	**silbe.1	**kern.2	**silbe.2	**rhyme	**timestamp	**phrase
*M4/4	*M4/4	*ICvox	*	*ICvox	*	*ICvox	*	*	*	*
*	*	*VRlead	*	*VRharmonize	*	*VRresponse	*	*	*	*
*	*	*Hstimme	*	*Nstimme	*	*Nstimme	*	*	*	*
*B:	*B:	*B:	*	*B:	*	*B:	*	*	*	*
*	*	*M4/4	*	*M4/4	*	*M4/4	*	*	*	*
*	*	*clefG2	*	*clefG2	*	*clefG2	*	*	*	*
1r;	1r	2r	.	1r	.	1r	.	.	0	.
.	.	8r	.	.	.	.	.	.	.	.
.	.	8F#	We've	.	.	.	.	.	.	.
.	.	8G#	been	.	.	.	.	.	.	.
.	.	8A#	to-	.	.	.	.	.	.	.
=1	=1	=1	=1	=1	=1	=1	=1	=1	=1	=1
*>Letter>A	*>Letter>A	*>Letter>A	*>Letter>A	*>Letter>A	*>Letter>A	*>Letter>A	*>Letter>A	*>Letter>A	*>Letter>A	*>Letter>A
*>Label>Verse	*>Label>Verse	*>Label>Verse	*>Label>Verse	*>Label>Verse	*>Label>Verse	*>Label>Verse	*>Label>Verse	*>Label>Verse	*>Label>Verse	*>Label>Verse
2BM	B:5	[4c#	-ge-	1r	.	1r	.	.	1.529	newline
.	.	16c#]	_	.	.	.	.	.	.	.
.	.	16B	_	.	.	.	.	.	.	.
.	.	16B	-ther	.	.	.	.	.	.	.
.	.	[16A#	now	.	.	.	.	.	.	.
2F#M	F#:sus4	8A#]	_	.	.	.	.	.	3.042	.
.	.	16B	for	.	.	.	.	.	.	.
.	.	[16A#	such	.	.	.	.	.	.	.
.	.	16A#]	_	.	.	.	.	.	.	.
.	.	8G#	a	.	.	.	.	.	.	.
.	.	[16F#	long	.	.	.	.	.	.	.
=2	=2	=2	=2	=2	=2	=2	=2	=2	=2	=2
1EM	E:sus2	8F#]	_	1r	.	1r	.	.	4.554	.
.	.	16F#	time	.	.	.	.	.	.	.
.	.	16G#	_	.	.	.	.	.	.	.
.	.	4r	.	.	.	.	.	.	.	.
.	.	8r	.	.	.	.	.	.	.	.
.	.	8F#	Through	.	.	.	.	.	.	.
.	.	16G#	e-	.	.	.	.	.	.	.
.	.	8A#	-very	.	.	.	.	.	.	.
.	.	[16c#	trial	.	.	.	.	.	.	.
=3	=3	=3	=3	=3	=3	=3	=3	=3	=3	=3
2BM	B:5	4.c#]	_	1r	.	1r	.	.	7.58	.
.	.	16B	we'd	.	.	.	.	.	.	.
.	.	[16A#	e-	.	.	.	.	.	.	.
2F#M	F#:sus4	16A#]	_	.	.	.	.	.	9.092	.
.	.	16B	-ver	.	.	.	.	.	.	.
.	.	8r	.	.	.	.	.	.	.	.
.	.	16A#	care	.	.	.	.	.	.	.
.	.	16G#	_	.	.	.	.	.	.	.
.	.	16F#	to	.	.	.	.	.	.	.
.	.	[16G#	go	.	.	.	.	A	.	.
=4	=4	=4	=4	=4	=4	=4	=4	=4	=4	=4
1EM	E:sus2	16G#]	_	1r	.	1r	.	.	10.605	.
.	.	16r	.	.	.	.	.	.	.	.
.	.	8r	.	.	.	.	.	.	.	.
.	.	4r	.	.	.	.	.	.	.	.
.	.	8r	.	.	.	.	.	.	.	.
.	.	16B	When	.	.	.	.	.	.	.
.	.	8c#	I	.	.	.	.	.	.	.
.	.	8d#	look	.	.	.	.	.	.	.
.	.	[16f#	back	.	.	.	.	.	.	.
=5	=5	=5	=5	=5	=5	=5	=5	=5	=5	=5
2AMm	A:9	4.f#]	_	1r	.	1r	.	.	13.63	newline
.	.	16e	I	.	.	.	.	.	.	.
.	.	[16d#	al-	.	.	.	.	.	.	.
2EM	E:maj/3	16d#]	_	.	.	.	.	.	15.145	.
.	.	8e	-most	.	.	.	.	.	.	.
.	.	16d#	can't	.	.	.	.	.	.	.
.	.	8c#	_	.	.	.	.	.	.	.
.	.	16B	be-	.	.	.	.	.	.	.
.	.	[16B	-lieve	.	.	.	.	.	.	.
=6	=6	=6	=6	=6	=6	=6	=6	=6	=6	=6
2AMm	A:9	16B]	_	1r	.	1r	.	.	16.66	.
.	.	16c#	it	.	.	.	.	.	.	.
.	.	8r	.	.	.	.	.	.	.	.
.	.	8.r	.	.	.	.	.	.	.	.
.	.	16B	We're	.	.	.	.	.	.	.
2EM	E:maj/3	8e	not	.	.	.	.	.	18.175	.
.	.	16d#	the	.	.	.	.	.	.	.
.	.	[16B	same	.	.	.	.	.	.	.
.	.	8B]	_	.	.	.	.	.	.	.
.	.	8e	peo-	.	.	.	.	.	.	.
=7	=7	=7	=7	=7	=7	=7	=7	=7	=7	=7
2BM	B:5	8d#	-ple	1r	.	1r	.	.	19.691	.
.	.	8r	.	.	.	.	.	.	.	.
.	.	8r	.	.	.	.	.	.	.	.
.	.	8B	that	.	.	.	.	.	.	.
2EM	E:5	8e	we	.	.	.	.	.	21.206	.
.	.	8d#	used	.	.	.	.	.	.	.
.	.	8B	to	.	.	.	.	.	.	.
.	.	[8c#	know	.	.	.	.	A	.	.
=8	=8	=8	=8	=8	=8	=8	=8	=8	=8	=8
1F#M	F#:maj	8c#]	_	1r	.	1r	.	.	22.721	.
.	.	8r	.	.	.	.	.	.	.	.
.	.	4r	.	.	.	.	.	.	.	.
.	.	8r	.	.	.	.	.	.	.	.
.	.	16F#	With	.	.	.	.	.	.	.
.	.	8G#	all	.	.	.	.	.	.	.
.	.	8A#	the	.	.	.	.	.	.	.
.	.	[16c#	years	.	.	.	.	.	.	.
=9	=9	=9	=9	=9	=9	=9	=9	=9	=9	=9
*>Letter>A	*>Letter>A	*>Letter>A	*>Letter>A	*>Letter>A	*>Letter>A	*>Letter>A	*>Letter>A	*>Letter>A	*>Letter>A	*>Letter>A
*>Label>Verse	*>Label>Verse	*>Label>Verse	*>Label>Verse	*>Label>Verse	*>Label>Verse	*>Label>Verse	*>Label>Verse	*>Label>Verse	*>Label>Verse	*>Label>Verse
2BM	B:maj	4.c#]	_	1r	.	1r	.	.	25.751	newline
.	.	16B	be-	.	.	.	.	.	.	.
.	.	[16A#	-hind	.	.	.	.	.	.	.
2F#M	F#:sus4	16A#]	_	.	.	.	.	.	27.257	.
.	.	8B	me	.	.	.	.	.	.	.
.	.	[16A#	spent	.	.	.	.	.	.	.
.	.	8A#]	_	.	.	.	.	.	.	.
.	.	16G#	pre-	.	.	.	.	.	.	.
.	.	[16F#	-tend-	.	.	.	.	.	.	.
=10	=10	=10	=10	=10	=10	=10	=10	=10	=10	=10
1EMm	E:9	16F#]	_	1r	.	1r	.	.	28.764	.
.	.	16F#	-ing	.	.	.	.	.	.	.
.	.	8G#	_	.	.	.	.	.	.	.
.	.	4r	.	.	.	.	.	.	.	.
.	.	8r	.	.	.	.	.	.	.	.
.	.	8F#	I	.	.	.	.	.	.	.
.	.	16G#	did-	.	.	.	.	.	.	.
.	.	8A#	-'nt	.	.	.	.	.	.	.
.	.	[16c#	need	.	.	.	.	.	.	.
=11	=11	=11	=11	=11	=11	=11	=11	=11	=11	=11
2BM	B:maj	4c#_	_	1r	.	1r	.	.	31.777	.
.	.	16c#]	_	.	.	.	.	.	.	.
.	.	8B	some-	.	.	.	.	.	.	.
.	.	[16A#	-one	.	.	.	.	.	.	.
2F#M	F#:sus4	16A#]	_	.	.	.	.	.	33.283	.
.	.	8B	like	.	.	.	.	.	.	.
.	.	16A#	you	.	.	.	.	.	.	.
.	.	8G#	_	.	.	.	.	.	.	.
.	.	16F#	a-	.	.	.	.	.	.	.
.	.	[16G#	-round	.	.	.	.	b	.	.
=12	=12	=12	=12	=12	=12	=12	=12	=12	=12	=12
1EMm	E:9	8G#]	_	1r	.	1r	.	.	34.789	.
.	.	8r	.	.	.	.	.	.	.	.
.	.	4r	.	.	.	.	.	.	.	.
.	.	8r	.	.	.	.	.	.	.	.
.	.	16B	It	.	.	.	.	.	.	.
.	.	8c#	makes	.	.	.	.	.	.	.
.	.	8d#	it	.	.	.	.	.	.	.
.	.	[16f#	e-	.	.	.	.	.	.	.
=13	=13	=13	=13	=13	=13	=13	=13	=13	=13	=13
2AMm	A:9	4f#_	_	1r	.	1r	.	.	37.802	newline
.	.	16f#]	_	.	.	.	.	.	.	.
.	.	8e	-ven	.	.	.	.	.	.	.
.	.	[16d#	hard-	.	.	.	.	.	.	.
2EM	E:maj/3	8d#]	_	.	.	.	.	.	39.329	.
.	.	16e	-er	.	.	.	.	.	.	.
.	.	[16d#	to	.	.	.	.	.	.	.
.	.	8d#]	_	.	.	.	.	.	.	.
.	.	16c#	i-	.	.	.	.	.	.	.
.	.	[16B	-ma-	.	.	.	.	.	.	.
=14	=14	=14	=14	=14	=14	=14	=14	=14	=14	=14
2AMm	A:9	16B]	_	1r	.	1r	.	.	40.857	.
.	.	16c#	-gine	.	.	.	.	.	.	.
.	.	8r	.	.	.	.	.	.	.	.
.	.	8.r	.	.	.	.	.	.	.	.
.	.	16B	the	.	.	.	.	.	.	.
2EM	E:maj/3	8e	life	.	.	.	.	.	42.384	.
.	.	8d#	I'd	.	.	.	.	.	.	.
.	.	8B	be	.	.	.	.	.	.	.
.	.	8e	liv-	.	.	.	.	.	.	.
=15	=15	=15	=15	=15	=15	=15	=15	=15	=15	=15
2BM	B:maj/5	8d#	-in'	1r	.	1r	.	.	43.911	.
.	.	8r	.	.	.	.	.	.	.	.
.	.	8r	.	.	.	.	.	.	.	.
.	.	8B	if	.	.	.	.	.	.	.
2EMm	E:9	8e	I	.	.	.	.	.	45.438	.
.	.	8d#	had-	.	.	.	.	.	.	.
.	.	8B	-'nt	.	.	.	.	.	.	.
.	.	[8c#	found	.	.	.	.	B	.	.
=16	=16	=16	=16	=16	=16	=16	=16	=16	=16	=16
1F#M	F#:maj	8c#]	_	1r	.	1r	.	.	46.965	.
.	.	8r	.	.	.	.	.	.	.	.
.	.	4r	.	.	.	.	.	.	.	.
.	.	8c#	Some-	.	.	.	.	.	.	.
.	.	8d#	-one	.	.	.	.	.	.	.
.	.	8g#	to	.	.	.	.	.	.	.
.	.	[8f#	hold	.	.	.	.	.	.	.
=17	=17	=17	=17	=17	=17	=17	=17	=17	=17	=17
*>Letter>B	*>Letter>B	*>Letter>B	*>Letter>B	*>Letter>B	*>Letter>B	*>Letter>B	*>Letter>B	*>Letter>B	*>Letter>B	*>Letter>B
*>Label>Chorus	*>Label>Chorus	*>Label>Chorus	*>Label>Chorus	*>Label>Chorus	*>Label>Chorus	*>Label>Chorus	*>Label>Chorus	*>Label>Chorus	*>Label>Chorus	*>Label>Chorus
1EM	E:maj	8f#]	_	1r	.	1r	.	.	50.02	newline
.	.	8g#	me	.	.	.	.	.	.	.
.	.	8r	.	.	.	.	.	.	.	.
.	.	8B	the	.	.	.	.	.	.	.
.	.	8B	way	.	.	.	.	.	.	.
.	.	8c#	that	.	.	.	.	.	.	.
.	.	8d#	you	.	.	.	.	.	.	.
.	.	8c#	do	.	.	.	.	C	.	.
=18	=18	=18	=18	=18	=18	=18	=18	=18	=18	=18
2.F#M	F#:maj	2r	.	1r	.	1r	.	.	53.071	.
.	.	8c#	Some-	.	.	.	.	.	.	.
.	.	8d#	-one	.	.	.	.	.	.	.
4C#M	C#:maj/b4	8g#	who	.	.	.	.	.	55.36	.
.	.	[8f#	needs	.	.	.	.	.	.	.
=19	=19	=19	=19	=19	=19	=19	=19	=19	=19	=19
1EM	E:maj	8f#]	_	1r	.	1r	.	.	56.123	.
.	.	8g#	me	.	.	.	.	.	.	.
.	.	8r	.	.	.	.	.	.	.	.
.	.	8B	the	.	.	.	.	.	.	.
.	.	8B	way	.	.	.	.	.	.	.
.	.	8c#	I	.	.	.	.	.	.	.
.	.	8d#	need	.	.	.	.	.	.	.
.	.	8c#	you	.	.	.	.	C	.	.
=20	=20	=20	=20	=20	=20	=20	=20	=20	=20	=20
2F#M	F#:maj	2r	.	1r	.	1r	.	.	59.174	.
2C#M	C#:maj/b4	8c#	Some-	.	.	.	.	.	60.7	.
.	.	8d#	-one	.	.	.	.	.	.	.
.	.	8g#	to	.	.	.	.	.	.	.
.	.	[8f#	show	.	.	.	.	.	.	.
=21	=21	=21	=21	=21	=21	=21	=21	=21	=21	=21
1EM	E:maj	8f#]	_	1r	.	1r	.	.	62.226	newline
.	.	8g#	me	.	.	.	.	.	.	.
.	.	8r	.	.	.	.	.	.	.	.
.	.	8G#	a	.	.	.	.	.	.	.
.	.	8B	way	.	.	.	.	.	.	.
.	.	8c#	that	.	.	.	.	.	.	.
.	.	8d#	is	.	.	.	.	.	.	.
.	.	8c#	true	.	.	.	.	C	.	.
=22	=22	=22	=22	=22	=22	=22	=22	=22	=22	=22
2F#M	F#:maj	2r	.	1r	.	1r	.	.	65.28	.
2EM	E:maj/3	8e	Some-	.	.	.	.	.	66.807	.
.	.	8d#	-one	.	.	.	.	.	.	.
.	.	8B	to	.	.	.	.	.	.	.
.	.	8e	love	.	.	.	.	.	.	.
=23	=23	=23	=23	=23	=23	=23	=23	=23	=23	=23
1BM	B:sus4/b7	8d#	_	1r	.	1r	.	.	68.335	.
.	.	2..B	me	.	.	.	.	.	.	.
=24	=24	=24	=24	=24	=24	=24	=24	=24	=24	=24
1BM	B:sus4/b7	4r	.	1r	.	1r	.	.	71.389	.
.	.	8.r	.	.	.	.	.	.	.	.
.	.	16B	the	.	.	.	.	.	.	.
.	.	8e	way	.	.	.	.	.	.	.
.	.	16d#	that	.	.	.	.	.	.	.
.	.	[16c#	I	.	.	.	.	.	.	.
.	.	16c#]	_	.	.	.	.	.	.	.
.	.	[8.B	love	.	.	.	.	.	.	.
=25	=25	=25	=25	=25	=25	=25	=25	=25	=25	=25
1BM	B:5	16B]	_	1r	.	1r	.	.	74.443	newline
.	.	[8.B	you	.	.	.	.	C	.	.
.	.	2.B_	_	.	.	.	.	.	.	.
=26	=26	=26	=26	=26	=26	=26	=26	=26	=26	=26
1BM	B:5	2B]	_	2r	.	1r	.	.	77.473	.
.	.	8.r	.	8.r	.	.	.	.	.	.
.	.	16F#	When	16A#	When	.	.	.	.	.
.	.	16G#	there	16B	there	.	.	.	.	.
.	.	8A#	was	8c#	was	.	.	.	.	.
.	.	[16c#	no-	[16e	no-	.	.	.	.	.
=27	=27	=27	=27	=27	=27	=27	=27	=27	=27	=27
*>Letter>A	*>Letter>A	*>Letter>A	*>Letter>A	*>Letter>A	*>Letter>A	*>Letter>A	*>Letter>A	*>Letter>A	*>Letter>A	*>Letter>A
*>Label>Verse	*>Label>Verse	*>Label>Verse	*>Label>Verse	*>Label>Verse	*>Label>Verse	*>Label>Verse	*>Label>Verse	*>Label>Verse	*>Label>Verse	*>Label>Verse
2BM	B:maj	4c#_	_	4e_	_	1r	.	.	80.504	newline
.	.	16c#]	_	16e]	_	.	.	.	.	.
.	.	8B	-one	8d#	-one	.	.	.	.	.
.	.	16A#	left	[16c#	left	.	.	.	.	.
2F#M	F#:sus4	8r	.	16c#]	_	.	.	.	82.045	.
.	.	.	.	16r	.	.	.	.	.	.
.	.	16B	for	16r	.	.	.	.	.	.
.	.	[16A#	me	[16c#	me	.	.	.	.	.
.	.	8A#]	_	8c#]	_	.	.	.	.	.
.	.	16G#	to	16c#	to	.	.	.	.	.
.	.	[16F#	turn	[16d#	turn	.	.	.	.	.
=28	=28	=28	=28	=28	=28	=28	=28	=28	=28	=28
1EMm	E:9	16F#]	_	16d#]	_	1r	.	.	83.586	.
.	.	16G#	to	16e	to	.	.	C	.	.
.	.	8r	.	8r	.	.	.	.	.	.
.	.	4r	.	4r	.	.	.	.	.	.
.	.	8.r	.	8.r	.	.	.	.	.	.
.	.	16F#	When	16A#	When	.	.	.	.	.
.	.	16G#	all	16B	all	.	.	.	.	.
.	.	8A#	the	8c#	the	.	.	.	.	.
.	.	[16c#	world	[16e	world	.	.	.	.	.
=29	=29	=29	=29	=29	=29	=29	=29	=29	=29	=29
2BM	B:maj	4c#_	_	4e_	_	1r	.	.	86.668	.
.	.	16c#]	_	16e]	_	.	.	.	.	.
.	.	8B	I	8g#	I	.	.	.	.	.
.	.	[16A#	knew	[16f#	knew	.	.	.	.	.
2F#M	F#:sus4	8A#]	_	8f#]	_	.	.	.	88.21	.
.	.	16B	was	16c#	was	.	.	.	.	.
.	.	16A#	fall-	8c#	fall-	.	.	.	.	.
.	.	16G#	_	.	.	.	.	.	.	.
.	.	8F#	-in'	8d#	-in'	.	.	.	.	.
.	.	[16G#	down	[16e	down	.	.	D	.	.
=30	=30	=30	=30	=30	=30	=30	=30	=30	=30	=30
1EMm	E:9	16G#]	_	16e]	_	1r	.	.	89.751	.
.	.	8.r	.	8.r	.	.	.	.	.	.
.	.	4r	.	4r	.	.	.	.	.	.
.	.	8r	.	2r	.	.	.	.	.	.
.	.	8B	Oh	.	.	.	.	.	.	.
.	.	16c#	there	.	.	.	.	.	.	.
.	.	8d#	were	.	.	.	.	.	.	.
.	.	[16f#	times	.	.	.	.	.	.	.
=31	=31	=31	=31	=31	=31	=31	=31	=31	=31	=31
2AMm	A:9	4f#_	_	1r	.	1r	.	.	92.833	newline
.	.	16f#]	_	.	.	.	.	.	.	.
.	.	8e	I	.	.	.	.	.	.	.
.	.	[16d#	could	.	.	.	.	.	.	.
2EM	E:maj/3	16d#]	_	.	.	.	.	.	94.367	.
.	.	16e	not	.	.	.	.	.	.	.
.	.	16r	.	.	.	.	.	.	.	.
.	.	[16d#	face	.	.	.	.	.	.	.
.	.	8d#]	_	.	.	.	.	.	.	.
.	.	16c#	the	.	.	.	.	.	.	.
.	.	[16B	morn-	.	.	.	.	.	.	.
=32	=32	=32	=32	=32	=32	=32	=32	=32	=32	=32
2AMm	A:9	16B]	_	4r	.	1r	.	.	95.9	.
.	.	16c#	-in'	.	.	.	.	.	.	.
.	.	8r	.	.	.	.	.	.	.	.
.	.	8.r	.	4r	.	.	.	.	.	.
.	.	16B	but	.	.	.	.	.	.	.
2EM	E:maj/3	8e	ev-	8g#	ev-	.	.	.	97.434	.
.	.	16d#	-ery-	16f#	-ery-	.	.	.	.	.
.	.	[16B	-thing's	[16d#	-thing's	.	.	.	.	.
.	.	8B]	_	8d#]	_	.	.	.	.	.
.	.	[8e	changed	[8g#	changed	.	.	.	.	.
=33	=33	=33	=33	=33	=33	=33	=33	=33	=33	=33
2BM	B:maj/5	8e]	_	8g#]	_	1r	.	.	98.967	.
.	.	8d#	since	8f#	since	.	.	.	.	.
.	.	8r	.	8r	.	.	.	.	.	.
.	.	16B	the	16~f#	the	.	.	.	.	.
.	.	[16e	day	[16g#	day	.	.	.	.	.
2EMm	E:9	8e]	_	8g#]	_	.	.	.	100.5	.
.	.	8d#	that	8f#	that	.	.	.	.	.
.	.	8B	I	8e	I	.	.	.	.	.
.	.	[8c#	found	[8f#	found	.	.	D	.	.
=34	=34	=34	=34	=34	=34	=34	=34	=34	=34	=34
1F#M	F#:maj	8c#]	_	8f#]	_	1r	.	.	102.034	.
.	.	8r	.	8r	.	.	.	.	.	.
.	.	4r	.	4r	.	.	.	.	.	.
*	*	*	*	*clefF4	*	*	*	*	*	*
.	.	8c#	Some-	8C#	Some-	.	.	.	.	.
.	.	8d#	-one	8D#	-one	.	.	.	.	.
.	.	8g#	to	8G#	to	.	.	.	.	.
.	.	[8f#	hold	[8F#	hold	.	.	.	.	.
=35	=35	=35	=35	=35	=35	=35	=35	=35	=35	=35
*>Letter>B	*>Letter>B	*>Letter>B	*>Letter>B	*>Letter>B	*>Letter>B	*>Letter>B	*>Letter>B	*>Letter>B	*>Letter>B	*>Letter>B
*>Label>Chorus	*>Label>Chorus	*>Label>Chorus	*>Label>Chorus	*>Label>Chorus	*>Label>Chorus	*>Label>Chorus	*>Label>Chorus	*>Label>Chorus	*>Label>Chorus	*>Label>Chorus
1EM	E:maj	8f#]	_	8F#]	_	1r	.	.	105.101	newline
.	.	8g#	me	8G#	me	.	.	.	.	.
.	.	8r	.	8r	.	.	.	.	.	.
.	.	8B	the	8BB	the	.	.	.	.	.
.	.	8B	way	8BB	way	.	.	.	.	.
.	.	8c#	that	8C#	that	.	.	.	.	.
.	.	8d#	you	8D#	you	.	.	.	.	.
.	.	8c#	do	8C#	do	.	.	C	.	.
=36	=36	=36	=36	=36	=36	=36	=36	=36	=36	=36
2.F#M	F#:maj	2r	.	2r	.	1r	.	.	108.15	.
.	.	8c#	Some-	8C#	Some-	.	.	.	.	.
.	.	8d#	-one	8D#	-one	.	.	.	.	.
4C#M	C#:maj/b4	8g#	who	8G#	who	.	.	.	110.436	.
.	.	[8f#	needs	[8F#	needs	.	.	.	.	.
=37	=37	=37	=37	=37	=37	=37	=37	=37	=37	=37
1EM	E:maj	8f#]	_	8F#]	_	1r	.	.	111.199	.
.	.	8g#	me	8G#	me	.	.	.	.	.
.	.	8r	.	8r	.	.	.	.	.	.
.	.	8B	the	8BB	the	.	.	.	.	.
.	.	8B	way	8BB	way	.	.	.	.	.
.	.	8c#	I	8C#	I	.	.	.	.	.
.	.	8d#	need	8D#	need	.	.	.	.	.
.	.	8c#	you	8C#	you	.	.	C	.	.
=38	=38	=38	=38	=38	=38	=38	=38	=38	=38	=38
2F#M	F#:maj	2r	.	2r	.	1r	.	.	114.247	.
2C#M	C#:maj/b4	8c#	Some-	8C#	Some-	.	.	.	115.772	.
.	.	8d#	-one	8D#	-one	.	.	.	.	.
.	.	8g#	to	8G#	to	.	.	.	.	.
.	.	[8f#	show	[8F#	show	.	.	.	.	.
=39	=39	=39	=39	=39	=39	=39	=39	=39	=39	=39
1EM	E:maj	8f#]	_	8F#]	_	1r	.	.	117.296	newline
.	.	8g#	me	8G#	me	.	.	.	.	.
.	.	8r	.	8r	.	.	.	.	.	.
.	.	8G#	a	8GG#	a	.	.	.	.	.
.	.	8B	way	8BB	way	.	.	.	.	.
.	.	8c#	that	8C#	that	.	.	.	.	.
.	.	8d#	is	8D#	is	.	.	.	.	.
.	.	8c#	true	8C#	true	.	.	C	.	.
=40	=40	=40	=40	=40	=40	=40	=40	=40	=40	=40
2F#M	F#:maj	2r	.	2r	.	1r	.	.	120.346	.
2EM	E:maj/3	8e	Some-	8E	Some-	.	.	.	121.871	.
.	.	8d#	-one	8D#	-one	.	.	.	.	.
.	.	8B	to	8BB	to	.	.	.	.	.
.	.	8e	love	8E	love	.	.	.	.	.
=41	=41	=41	=41	=41	=41	=41	=41	=41	=41	=41
1BM	B:sus4/b7	8d#	_	8D#	_	1r	.	.	123.396	.
.	.	2..B	me	2..BB	me	.	.	.	.	.
=42	=42	=42	=42	=42	=42	=42	=42	=42	=42	=42
*	*	*	*	*clefG2	*	*	*	*	*	*
1BM	B:sus4/b7	4r	.	4r	.	1r	.	.	126.446	.
.	.	8.r	.	8.r	.	.	.	.	.	.
.	.	16B	the	16~f#	the	.	.	.	.	.
.	.	8e	way	8g#	way	.	.	.	.	.
.	.	16d#	that	16f#	that	.	.	.	.	.
.	.	[16c#	I	[16e	I	.	.	.	.	.
.	.	16c#]	_	16e]	_	.	.	.	.	.
.	.	8.B	love	8.d#	love	.	.	.	.	.
=43	=43	=43	=43	=43	=43	=43	=43	=43	=43	=43
*>Letter>C	*>Letter>C	*>Letter>C	*>Letter>C	*>Letter>C	*>Letter>C	*>Letter>C	*>Letter>C	*>Letter>C	*>Letter>C	*>Letter>C
*>Label>Solo	*>Label>Solo	*>Label>Solo	*>Label>Solo	*>Label>Solo	*>Label>Solo	*>Label>Solo	*>Label>Solo	*>Label>Solo	*>Label>Solo	*>Label>Solo
1C#m	C#:min	1c#	you	1e	you	1r	.	C	129.496	newline
=44	=44	=44	=44	=44	=44	=44	=44	=44	=44	=44
1G#Mm	G#:7	1r	.	1r	.	1r	.	.	132.509	.
=45	=45	=45	=45	=45	=45	=45	=45	=45	=45	=45
1AM	A:maj	1r	.	1r	.	1r	.	.	135.522	.
=46	=46	=46	=46	=46	=46	=46	=46	=46	=46	=46
2.AM	A:maj	1r	.	1r	.	1r	.	.	138.536	.
4C#m	C#:min/5	.	.	.	.	.	.	.	140.796	.
=47	=47	=47	=47	=47	=47	=47	=47	=47	=47	=47
1F#m	F#:min	1r	.	1r	.	1r	.	.	141.549	newline
=48	=48	=48	=48	=48	=48	=48	=48	=48	=48	=48
1C#Mm	C#:7	1r	.	1r	.	1r	.	.	144.562	.
=49	=49	=49	=49	=49	=49	=49	=49	=49	=49	=49
1DM	D:maj	8r	.	1r	.	1r	.	.	147.574	.
.	.	16f#	Come	.	.	.	.	.	.	.
.	.	8a#	on!	.	.	.	.	.	.	.
.	.	16f#	Come	.	.	.	.	.	.	.
.	.	8a#	on!	.	.	.	.	.	.	.
.	.	16f#	Come	.	.	.	.	.	.	.
.	.	8a#	on!	.	.	.	.	.	.	.
.	.	16f#	Come	.	.	.	.	.	.	.
.	.	8a#	on	.	.	.	.	.	.	.
.	.	8f#	now!	.	.	.	.	.	.	.
=50	=50	=50	=50	=50	=50	=50	=50	=50	=50	=50
1F#m	F#:min	2r	.	2r	.	1r	.	.	150.587	.
*	*	*	*	*clefF4	*	*	*	*	*	*
.	.	8c#	Some-	8C#	Some-	.	.	.	.	.
.	.	8d#	-one	8D#	-one	.	.	.	.	.
.	.	8g#	to	8G#	to	.	.	.	.	.
.	.	[8f#	hold	[8F#	hold	.	.	.	.	.
=51	=51	=51	=51	=51	=51	=51	=51	=51	=51	=51
*>Letter>B	*>Letter>B	*>Letter>B	*>Letter>B	*>Letter>B	*>Letter>B	*>Letter>B	*>Letter>B	*>Letter>B	*>Letter>B	*>Letter>B
*>Label>Chorus	*>Label>Chorus	*>Label>Chorus	*>Label>Chorus	*>Label>Chorus	*>Label>Chorus	*>Label>Chorus	*>Label>Chorus	*>Label>Chorus	*>Label>Chorus	*>Label>Chorus
1EM	E:maj	8f#]	_	8F#]	_	1r	.	.	153.6	newline
.	.	8g#	me	8G#	me	.	.	.	.	.
.	.	8r	.	8r	.	.	.	.	.	.
.	.	8B	the	8BB	the	.	.	.	.	.
.	.	8B	way	8BB	way	.	.	.	.	.
.	.	8c#	that	8C#	that	.	.	.	.	.
.	.	8d#	you	8D#	you	.	.	.	.	.
.	.	8c#	do	8C#	do	.	.	C	.	.
=52	=52	=52	=52	=52	=52	=52	=52	=52	=52	=52
2.F#M	F#:maj	2r	.	2r	.	1r	.	.	156.606	.
.	.	8c#	Some-	8C#	Some-	.	.	.	.	.
.	.	8d#	-one	8D#	-one	.	.	.	.	.
4C#M	C#:maj/b4	8g#	who	8G#	who	.	.	.	158.861	.
.	.	[8f#	needs	[8F#	needs	.	.	.	.	.
=53	=53	=53	=53	=53	=53	=53	=53	=53	=53	=53
1EM	E:maj	8f#]	_	8F#]	_	1r	.	.	159.612	.
.	.	8g#	me	8G#	me	.	.	.	.	.
.	.	8r	.	8r	.	.	.	.	.	.
.	.	8B	the	8BB	the	.	.	.	.	.
.	.	8B	way	8BB	way	.	.	.	.	.
.	.	8c#	I	8C#	I	.	.	.	.	.
.	.	8d#	need	8D#	need	.	.	.	.	.
.	.	8c#	you	8C#	you	.	.	C	.	.
=54	=54	=54	=54	=54	=54	=54	=54	=54	=54	=54
2F#M	F#:maj	2r	.	2r	.	1r	.	.	162.618	.
2C#M	C#:maj/b4	8c#	Some-	8C#	Some-	.	.	.	164.122	.
.	.	8d#	-one	8D#	-one	.	.	.	.	.
.	.	8g#	to	8G#	to	.	.	.	.	.
.	.	[8f#	show	[8F#	show	.	.	.	.	.
=55	=55	=55	=55	=55	=55	=55	=55	=55	=55	=55
1EM	E:maj	8f#]	_	8F#]	_	1r	.	.	165.625	newline
.	.	8g#	me	8G#	me	.	.	.	.	.
.	.	8r	.	8r	.	.	.	.	.	.
.	.	8G#	a	8GG#	a	.	.	.	.	.
.	.	8B	way	8BB	way	.	.	.	.	.
.	.	8c#	that	8C#	that	.	.	.	.	.
.	.	8d#	is	8D#	is	.	.	.	.	.
.	.	8c#	true	8C#	true	.	.	C	.	.
=56	=56	=56	=56	=56	=56	=56	=56	=56	=56	=56
2F#M	F#:maj	2r	.	2r	.	1r	.	.	168.612	.
2EM	E:maj/3	8e	Some-	8E	Some-	.	.	.	170.105	.
.	.	8d#	-one	8D#	-one	.	.	.	.	.
.	.	8B	to	8BB	to	.	.	.	.	.
.	.	8e	love	8E	love	.	.	.	.	.
=57	=57	=57	=57	=57	=57	=57	=57	=57	=57	=57
1BM	B:sus4/b7	8d#	_	8D#	_	1r	.	.	171.599	.
.	.	2..B	me	2..BB	me	.	.	.	.	.
=58	=58	=58	=58	=58	=58	=58	=58	=58	=58	=58
1BM	B:sus4/b7	2r	.	2r	.	4r	.	.	174.585	.
.	.	.	.	.	.	4b	Yeah!	.	.	.
*	*	*	*	*clefF4	*	*	*	*	*	*
.	.	8c#	Some-	8C#	Some-	8b	Some	.	.	.
.	.	8d#	-one	8D#	-one	8r	.	.	.	.
.	.	8g#	to	8G#	to	4r	.	.	.	.
.	.	[8f#	hold	[8F#	hold	.	.	.	.	.
=59	=59	=59	=59	=59	=59	=59	=59	=59	=59	=59
*>Letter>B	*>Letter>B	*>Letter>B	*>Letter>B	*>Letter>B	*>Letter>B	*>Letter>B	*>Letter>B	*>Letter>B	*>Letter>B	*>Letter>B
*>Label>Chorus	*>Label>Chorus	*>Label>Chorus	*>Label>Chorus	*>Label>Chorus	*>Label>Chorus	*>Label>Chorus	*>Label>Chorus	*>Label>Chorus	*>Label>Chorus	*>Label>Chorus
1EM	E:maj	8f#]	_	8F#]	_	1r	.	.	177.572	newline
.	.	8g#	me	8G#	me	.	.	.	.	.
.	.	8r	.	8r	.	.	.	.	.	.
.	.	8B	the	8BB	the	.	.	.	.	.
.	.	8B	way	8BB	way	.	.	.	.	.
.	.	8c#	that	8C#	that	.	.	.	.	.
.	.	8d#	you	8D#	you	.	.	.	.	.
.	.	8c#	do	8C#	do	.	.	C	.	.
=60	=60	=60	=60	=60	=60	=60	=60	=60	=60	=60
2.F#M	F#:maj	2r	.	2r	.	1r	.	.	180.584	.
.	.	8c#	Some-	8C#	Some-	.	.	.	.	.
.	.	8d#	-one	8D#	-one	.	.	.	.	.
4C#M	C#:maj/b4	8g#	who	8G#	who	.	.	.	182.842	.
.	.	[8f#	needs	[8F#	needs	.	.	.	.	.
=61	=61	=61	=61	=61	=61	=61	=61	=61	=61	=61
1EM	E:maj	8f#]	_	8F#]	_	1r	.	.	183.595	.
.	.	8g#	me	8G#	me	.	.	.	.	.
.	.	8r	.	8r	.	.	.	.	.	.
.	.	8B	the	8BB	the	.	.	.	.	.
.	.	8B	way	8BB	way	.	.	.	.	.
.	.	8c#	I	8C#	I	.	.	.	.	.
.	.	8d#	need	8D#	need	.	.	.	.	.
.	.	8c#	you	8C#	you	.	.	C	.	.
=62	=62	=62	=62	=62	=62	=62	=62	=62	=62	=62
2F#M	F#:maj	2r	.	2r	.	8r	.	.	186.606	.
.	.	.	.	.	.	8b	Some-	.	.	.
.	.	.	.	.	.	16b	-bo-	.	.	.
.	.	.	.	.	.	16g#	-dy	.	.	.
.	.	.	.	.	.	16f#	who	.	.	.
.	.	.	.	.	.	[16b	needs	.	.	.
2C#M	C#:maj/b4	8c#	Some-	8C#	Some-	16b]	_	.	188.112	.
.	.	.	.	.	.	16b	me	.	.	.
.	.	8d#	-one	8D#	-one	8g#	I	.	.	.
.	.	8g#	to	8G#	to	12b	got	.	.	.
.	.	.	.	.	.	12cc#	me	.	.	.
.	.	[8f#	show	[8F#	show	.	.	.	.	.
.	.	.	.	.	.	12dd#	X	.	.	.
=63	=63	=63	=63	=63	=63	=63	=63	=63	=63	=63
1EM	E:maj	8f#]	_	8F#]	_	16g#	X	.	189.618	newline
.	.	.	.	.	.	16f#	_	.	.	.
.	.	8g#	me	8G#	me	16d#	_	.	.	.
.	.	.	.	.	.	16d#	_	.	.	.
.	.	8r	.	4r	.	8r	.	.	.	.
.	.	8G#	a	.	.	8r	.	.	.	.
.	.	8B	way	8BB	way	2r	.	.	.	.
.	.	8c#	that	8C#	that	.	.	.	.	.
.	.	8d#	is	8D#	is	.	.	.	.	.
.	.	8c#	true	8C#	true	.	.	C	.	.
=64	=64	=64	=64	=64	=64	=64	=64	=64	=64	=64
2F#M	F#:maj	2r	.	2r	.	4r	.	.	192.635	.
.	.	.	.	.	.	4b	Yeah!	.	.	.
2EM	E:maj/3	8f#	Some-	8F#	Some-	2r	.	.	194.144	.
.	.	8e	-one	8E	-one	.	.	.	.	.
.	.	8d#	to	8D#	to	.	.	.	.	.
.	.	8e	love	8E	love	.	.	.	.	.
=65	=65	=65	=65	=65	=65	=65	=65	=65	=65	=65
1BM	B:sus4/b7	8d#	_	8D#	_	1r	.	.	195.653	.
.	.	[8B	me	[8BB	me	.	.	.	.	.
.	.	4B_	_	2BB_	_	.	.	.	.	.
.	.	4B_	_	.	.	.	.	.	.	.
.	.	16B]	_	8BB]	_	.	.	.	.	.
.	.	16G#	_	.	.	.	.	.	.	.
.	.	8r	.	8r	.	.	.	.	.	.
=66	=66	=66	=66	=66	=66	=66	=66	=66	=66	=66
1BM	B:sus4/b7	4r	.	1r	.	1r	.	.	198.671	.
.	.	8.r	.	.	.	.	.	.	.	.
.	.	16B	the	.	.	.	.	.	.	.
.	.	8e	way	.	.	.	.	.	.	.
.	.	16d#	that	.	.	.	.	.	.	.
.	.	[16c#	I	.	.	.	.	.	.	.
.	.	16c#]	_	.	.	.	.	.	.	.
.	.	8.B	love	.	.	.	.	.	.	.
=67	=67	=67	=67	=67	=67	=67	=67	=67	=67	=67
1BM	B:maj	8r	.	1r	.	1r	.	.	201.689	newline
.	.	[8B	you	.	.	.	.	C	.	.
.	.	2B]	_	.	.	.	.	.	.	.
.	.	4r	.	.	.	.	.	.	.	.
=68	=68	=68	=68	=68	=68	=68	=68	=68	=68	=68
1EMM	E:maj7	1r	.	1r	.	1r	.	.	204.72	.
=69	=69	=69	=69	=69	=69	=69	=69	=69	=69	=69
1C#mm	C#:min7	1r	.	1r	.	1r	.	.	207.75	.
=70	=70	=70	=70	=70	=70	=70	=70	=70	=70	=70
1AMm	A:9	1r	.	1r	.	1r	.	.	210.781	.
=71	=71	=71	=71	=71	=71	=71	=71	=71	=71	=71
1EM	E:maj	1r	.	1r	.	1r	.	.	213.812	newline
=72	=72	=72	=72	=72	=72	=72	=72	=72	=72	=72
1EM	E:maj	1r	.	1r	.	1r	.	.	216.904	.
=73	=73	=73	=73	=73	=73	=73	=73	=73	=73	=73
1EM	E:maj	1r	.	1r	.	1r	.	.	219.997	.
=74	=74	=74	=74	=74	=74	=74	=74	=74	=74	=74
1EM	E:maj	1r	.	1r	.	1r	.	.	223.089	.
=75	=75	=75	=75	=75	=75	=75	=75	=75	=75	=75
1EM	E:maj	1r	.	1r	.	1r	.	.	226.181	.
1r;	1r	r;	.	r;	.	r;	.	.	229.274	.
1r;	1r	r;	.	r;	.	r;	.	.	231.445	.
*-	*-	*-	*-	*-	*-	*-	*-	*-	*-	*-
!!!BillboardChartDate: 1991/06/01
!!!BillboardPeak: 78
!!!BillboardWeeksOnChart: 10
!!!COC: The Rembrandts
!!!ENC: Nathaniel Condit-Schultz
!!!EST: Awating manual error checking and editing.
!!!OTL: Someone
!!!RDF**chordsym: original McGill chord annotation + (implied pitch class set, with bass pitch in first position)
!!!RDF**harmony: **recip + pitch class of root + harmonic quality
!!!RDF**leadinstrument: original McGill primary instrumentation annotation
!!!RDF**phrase: newline = linebreak in original McGill transcription
!!!RDF**timestamp: McGill audio timestamp in seconds
!!!RDT: 2017/01/12/
!!!SampleActualRank: 93
!!!SampleID#: 0414
!!!SampleTargetRank: 91
!!!MBID: a0f8ce54-fc7b-4ff4-9973-f7e3f225bedd